X:15
T:House of Gray. Ru1.095, The
%%VWML:RutherfordVol1-2248-p48-0p48
Z:Transcription by Village Music Project, Steve Mansfield July 2015
F:http://www.village-music-project.org.uk/
F:http://www.vwml.org/record/RutherfordVol1/2248/p48
L:1/8
Q:1/4=100
K:Gm
G3B3|cAF cAF|G3B2c|dBd dBG|
fgf =e2d|cA^F cA^F|G2G Bcd|cA^FG3:|
|:B2B f2B|dBd cAF|B2Bf2B|dBd fdf|
gag f2d|cAd cA^F|G2GBcd|cA^FG3:|
W:Hands across quite round with the 2d Couple
W:and Cast off .| the same with the 3d Couple:|
W:Lead up to the top, foot it and Cast off.|.
W:  Right hand & Left :||: foot it Corners &
W:turn .|| foot it the other Corners and turn:||
W:Hay Contrary sides .|| foot it to your
W:partner and turn it out :|
|:
T:Dumond's Jigg. Ru1.096
B:Rutherford's Country Dances Vol 1, 1756
Z:village music project, Ruairidh Greig July 2015
M:6/8
L:1/8
Q:1/4=100
R:Jigg
K:Dm
d^cd A2G|F2ED2C|D2EF2F|GFGA3:|
|:fefc2B|A2GF2C|F2AG2F|GFEF3|
ABAd2A|d2Ad2e|fed efg|feda3|
ABAd2A|d2Ad2e|fed gab|f2ed3:|
W:Cast off one Couple .| Cast up again :| Cross over
W:and half figure Lead through the 3d Couple and Cast
W:up into the 2d Couples place .|. Right hand & Left
W:quite round with the 2d Couple and turn your partner :|
|:
